assets/icons/qvision/pivot_table_chart.svg

<svg xmlns="http://www.w3.org/2000/svg" height="24" viewBox="0 0 24 24" width="24"><path d="M0 0h24v24H0z" fill="none"/><path d="M10 8h11V5c0-1.1-.9-2-2-2h-9v5zM3 8h5V3H5c-1.1 0-2 .9-2 2v3zm2 13h3V10H3v9c0 1.1.9 2 2 2zm8 1l-4-4 4-4zm1-9l4-4 4 4z"/><path d="M14.58 19H13v-2h1.58c1.33 0 2.42-1.08 2.42-2.42V13h2v1.58c0 2.44-1.98 4.42-4.42 4.42z"/></svg>

<svg width="24" height="24" viewBox="0 0 24 24" fill="none" xmlns="http://www.w3.org/2000/svg">
<g clip-path="url(#clip0_147_5836)">
<path d="M10 8H21V5C21 3.9 20.1 3 19 3H10V8ZM3 8H8V3H5C3.9 3 3 3.9 3 5V8ZM5 21H8V10H3V19C3 20.1 3.9 21 5 21ZM13 22L9 18L13 14V22ZM14 13L18 9L22 13H14Z" fill="#323232"/>
<path d="M14.58 19H13V17H14.58C15.91 17 17 15.92 17 14.58V13H19V14.58C19 17.02 17.02 19 14.58 19Z" fill="#323232"/>
</g>
<defs>
<clipPath id="clip0_147_5836">
<rect width="24" height="24" fill="white"/>
</clipPath>
</defs>
</svg>
